Origami/48x48/apps/lugaru.svg

<svg width="48" height="48" version="1.1" viewBox="0 0 48 48" xmlns="http://www.w3.org/2000/svg">
 <circle cx="24" cy="39" r="6" style="opacity:.2"/>
 <circle cx="24" cy="38" r="6" style="fill:#8f6943"/>
 <rect x="24" y="39" width="2" height="4" rx=".5" ry=".5" style="opacity:.2"/>
 <path d="m7.3535353 5.007044c-0.1503128-0.012632-0.2862398-0.00839-0.408209 0.013668-0.1626257 0.029413-0.2994394 0.088801-0.4140686 0.1796408-0.9383036 0.743574-0.6457138 3.6972484 0.9785299 9.8411908 0.9107933 3.44521 1.6619128 5.279869 2.9551214 7.222732 0.849152 1.275699 1.259587 1.759641 2.662148 3.145667 1.256112 1.383793 2.840607 3.319611 2.873089 4.947932-0.360699 3.214373-2.857186 4.8966-3.000044 7.632781 0 3.312847 1.686317 5.998441 5.000073 5.998441 2.078524 0.207989 4.139177-2.624247 6.000087-2.99922 2.247795 0.454298 4.06349 3.010232 6.000088 2.99922 3.313756 0 5.000073-2.685594 5.000073-5.998441-0.142858-2.736181-2.639346-4.418408-3.000044-7.632781 0.03248-1.628321 1.616977-3.564139 2.873089-4.947932 1.40256-1.386026 1.812995-1.869968 2.662148-3.145667 1.293208-1.942863 2.044327-3.777522 2.955121-7.222732 1.624243-6.1439424 1.916834-9.0976168 0.97853-9.8411908-0.114629-0.09084-0.251443-0.1502275-0.414068-0.1796408-0.121971-0.022056-0.257898-0.0263-0.40821-0.013669-0.450939 0.037895-1.031853 0.2318519-1.757838 0.5857852-1.43973 0.7019125-2.847575 1.7395404-4.433658 3.2667289-2.380015 2.2916235-3.2311 3.6031285-6.033291 9.3061735-0.836952 1.699205-1.863644 3.781404-3.119187 5.586438-0.364862 0.251195-1.302753 0.255793-1.302753 0.255793s-0.93789-0.0046-1.302753-0.255793c-1.255542-1.8050326-2.282234-3.8872316-3.119186-5.5864366-2.802191-5.703045-3.653276-7.014551-6.033291-9.3061739-1.586083-1.5271885-2.993929-2.5648164-4.4336586-3.2667289-0.7259842-0.3539333-1.3068997-0.5478902-1.7578381-0.5857852z" style="opacity:.2"/>
 <rect x="24" y="38" width="2" height="4" rx=".5" ry=".5" style="fill:#ffffff"/>
 <rect x="22" y="39" width="2" height="4" rx=".5" ry=".5" style="opacity:.2"/>
 <rect x="22" y="38" width="2" height="4" rx=".5" ry=".5" style="fill:#ffffff"/>
 <path d="m7.3535353 4.0070437c-0.1503128-0.0126316-0.2862398-0.0083917-0.408209 0.0136684-0.1626257 0.0294132-0.2994394 0.0888014-0.4140686 0.1796408-0.9383036 0.743574-0.6457138 3.6972484 0.9785299 9.8411911 0.9107933 3.44521 1.6619128 5.279869 2.9551214 7.222732 0.849152 1.275699 1.259587 1.759641 2.662148 3.145667 1.256112 1.383793 2.840607 3.319611 2.873089 4.947932-0.360699 3.214373-2.857186 4.8966-3.000044 7.632781 0 3.312847 1.686317 5.998441 5.000073 5.998441 2.078524 0.207989 4.139177-2.624247 6.000087-2.99922 2.247795 0.454298 4.06349 3.010232 6.000088 2.99922 3.313756 0 5.000073-2.685594 5.000073-5.998441-0.142858-2.736181-2.639346-4.418408-3.000044-7.632781 0.03248-1.628321 1.616977-3.564139 2.873089-4.947932 1.40256-1.386026 1.812995-1.869968 2.662148-3.145667 1.293208-1.942863 2.044327-3.777522 2.955121-7.222732 1.624243-6.1439427 1.916834-9.0976171 0.97853-9.8411911-0.114629-0.09084-0.251443-0.1502275-0.414068-0.1796408-0.121971-0.022056-0.257898-0.0263-0.40821-0.013669-0.450939 0.037895-1.031853 0.2318519-1.757838 0.5857852-1.43973 0.7019125-2.847575 1.7395404-4.433658 3.2667289-2.380015 2.2916238-3.2311 3.6031288-6.033291 9.3061738-0.836952 1.699205-1.863644 3.781404-3.119187 5.586438-0.364862 0.251195-1.302753 0.255793-1.302753 0.255793s-0.93789-0.0046-1.302753-0.255793c-1.255542-1.805033-2.282234-3.887232-3.119186-5.586437-2.802191-5.703045-3.653276-7.014551-6.033291-9.3061742-1.586083-1.5271885-2.993929-2.5648164-4.4336586-3.2667289-0.7259842-0.3539333-1.3068997-0.5478902-1.7578381-0.5857852z" style="fill:#b08458"/>
 <path d="m19.101957 35c-1.267765 0-3.098915-1.027728-3.098915-2.295493s-0.120019-2.295493 1.147746-2.295493c3.258659 0.387737 3.44324 4.590986 1.951169 4.590986z" style="opacity:.2"/>
 <path d="m19.101957 34c-1.267765 0-3.098915-1.027728-3.098915-2.295493s-0.120019-2.295493 1.147746-2.295493c3.258659 0.387737 3.44324 4.590986 1.951169 4.590986z" style="fill:#ffffff"/>
 <path d="m28.898043 35c1.267765 0 3.098915-1.027728 3.098915-2.295493s0.120019-2.295493-1.147746-2.295493c-3.258659 0.387737-3.44324 4.590986-1.951169 4.590986z" style="opacity:.2"/>
 <path d="m28.898043 34c1.267765 0 3.098915-1.027728 3.098915-2.295493s0.120019-2.295493-1.147746-2.295493c-3.258659 0.387737-3.44324 4.590986-1.951169 4.590986z" style="fill:#ffffff"/>
 <path d="m24 40c-1.931542-0.131713-3.590213-2.043843-2.797269-2.986174 0.846116-0.743091 1.908069-1.022541 2.797269-1.01362 0.889202-0.0089 1.951154 0.270529 2.797269 1.01362 0.792944 0.942331-0.865726 2.854461-2.797269 2.986174z" style="fill:#bf3667"/>
 <path d="m8.0429688 6.3085938c0.00306 0.2153513-0.023677 0.2944028 0.00586 0.5917968 0.1382306 1.3917864 0.5950713 3.6079064 1.3945313 6.6328124 0.8861906 3.353066 1.5180956 4.871632 2.6874996 6.628906h-2e-3c0.813712 1.222792 1.028556 1.472135 2.404297 2.832032l0.03906 0.03711 0.03516 0.04102c0.588451 0.648444 1.310646 1.395597 1.941406 2.273437 1.02779-1.152894 2.308662-2.052045 3.742188-2.626953-1.009435-1.630698-1.834444-3.298546-2.507813-4.666016v-2e-3c-2.7849467-5.669556-3.3479987-6.555011-5.6249547-8.7480046-1.486164-1.431373-2.720396-2.3252384-3.923828-2.9121094-0.1660692-0.080981-0.0585639-0.0339462-0.1914062-0.0820312zm31.914062 0.00977c-0.08929 0.038896-0.0905 0.02306-0.191406 0.072266-1.203432 0.586871-2.437664 1.4807364-3.923828 2.9121094-2.276956 2.1929936-2.840008 3.0784486-5.625 8.7480466v2e-3c-0.673684 1.368108-1.499679 3.036548-2.509766 4.667969 1.434229 0.574645 2.715794 1.473813 3.744141 2.626953 0.63097-0.878405 1.352649-1.626631 1.941406-2.27539l0.03516-0.04102 0.03906-0.03711c1.375741-1.359897 1.590585-1.60924 2.404297-2.832032h-2e-3c1.169357-1.757277 1.801309-3.27584 2.6875-6.628906 0.79946-3.024906 1.2563-5.2410259 1.394531-6.6328124 0.02909-0.292487 0.0026-0.368798 0.0059-0.5820312z" style="opacity:.3"/>
 <circle cx="19" cy="33" r="1" style="fill:#323232"/>
 <circle cx="29" cy="33" r="1" style="fill:#323232"/>
 <path d="m7.3535156 4.0078125c-0.1503128-0.0126316-0.2862339-0.0083882-0.4082031 0.0136719-0.1626257 0.0294132-0.2994333 0.0888481-0.4140625 0.1796875-0.4141339 0.3281872-0.574092 1.1170971-0.5 2.390625 0.0509256-0.6867385 0.2085661-1.1596735 0.5-1.390625 0.1146292-0.0908398 0.2514368-0.1502745 0.4140625-0.1796875 0.1219692-0.022058 0.2578903-0.0263039 0.4082031-0.0136719 0.4509384 0.037895 1.0318283 0.2320042 1.7578125 0.5859375 1.4397299 0.7019125 2.8475109 1.7384365 4.4335939 3.265625 2.380015 2.291623 3.231012 3.603596 6.033203 9.306641 0.836952 1.699205 1.863599 3.780905 3.119141 5.585937 0.364863 0.251193 1.302734 0.255859 1.302734 0.255859 0 1e-6 0.937872-0.004664 1.302734-0.255859 1.255543-1.805034 2.282189-3.886732 3.119141-5.585937 2.802191-5.703045 3.653188-7.015017 6.033203-9.306641 1.586083-1.5271885 2.993864-2.5637125 4.433594-3.265625 0.725985-0.3539333 1.306873-0.5480425 1.757812-0.5859375 0.150312-0.012631 0.286232-0.0083841 0.408204 0.0136719 0.162624 0.0294133 0.299433 0.0888475 0.414062 0.1796875 0.290331 0.2300773 0.448349 0.7005027 0.5 1.3828125 0.072922-1.2688028-0.086716-2.0552993-0.5-2.3828125-0.114629-0.09084-0.251437-0.1502742-0.414062-0.1796875-0.121972-0.022056-0.257892-0.0263029-0.408204-0.0136719-0.450939 0.037895-1.031827 0.2320042-1.757812 0.5859375-1.43973 0.7019125-2.847511 1.7384365-4.433594 3.265625-2.380015 2.291624-3.231012 3.603596-6.033203 9.306641-0.836952 1.699205-1.863598 3.780903-3.119141 5.585937-0.364862 0.251195-1.302734 0.25586-1.302734 0.255859 0 0-0.937871-0.004666-1.302734-0.255859-1.255542-1.805033-2.282189-3.886732-3.119141-5.585937-2.802191-5.703045-3.653188-7.015018-6.033203-9.306641-1.586083-1.5271885-2.993864-2.5637125-4.4335939-3.265625-0.7259842-0.3539333-1.3068741-0.5480425-1.7578125-0.5859375zm8.5742184 25.80664c-0.531086 2.921355-2.791842 4.573019-2.927734 7.175781 0 0.212093 0.027208 0.41273 0.041016 0.619141 0.339838-2.515877 2.615461-4.190644 2.958984-7.251953-0.003539-0.177413-0.034311-0.359367-0.072266-0.542969zm16.144532 0c-0.037955 0.183602-0.068727 0.365556-0.072266 0.542969 0.343522 3.061309 2.619145 4.736076 2.958984 7.251953 0.013808-0.206411 0.041016-0.407048 0.041016-0.619141-0.135892-2.602762-2.396648-4.254426-2.927734-7.175781z" style="fill:#ffffff;opacity:.2"/>
</svg>

<svg xmlns="http://www.w3.org/2000/svg" width="48" height="48" version="1.1" viewBox="0 0 48 48">
 <circle style="opacity:0.2" cx="24" cy="39" r="6"/>
 <circle style="fill:#8f6943" cx="24" cy="38" r="6"/>
 <rect style="opacity:0.2" width="2" height="4" x="24" y="39" rx=".5" ry=".5"/>
 <path style="opacity:0.2" d="m 7.3535353,5.007044 c -0.1503128,-0.012632 -0.2862398,-0.00839 -0.408209,0.013668 -0.1626257,0.029413 -0.2994394,0.088801 -0.4140686,0.1796408 -0.9383036,0.743574 -0.6457138,3.6972484 0.9785299,9.8411908 0.9107933,3.44521 1.6619128,5.279869 2.9551214,7.222732 0.849152,1.275699 1.259587,1.759641 2.662148,3.145667 1.256112,1.383793 2.840607,3.319611 2.873089,4.947932 -0.360699,3.214373 -2.857186,4.8966 -3.000044,7.632781 0,3.312847 1.686317,5.998441 5.000073,5.998441 2.078524,0.207989 4.139177,-2.624247 6.000087,-2.99922 2.247795,0.454298 4.06349,3.010232 6.000088,2.99922 3.313756,0 5.000073,-2.685594 5.000073,-5.998441 -0.142858,-2.736181 -2.639346,-4.418408 -3.000044,-7.632781 0.03248,-1.628321 1.616977,-3.564139 2.873089,-4.947932 1.40256,-1.386026 1.812995,-1.869968 2.662148,-3.145667 1.293208,-1.942863 2.044327,-3.777522 2.955121,-7.222732 1.624243,-6.1439424 1.916834,-9.0976168 0.97853,-9.8411908 -0.114629,-0.09084 -0.251443,-0.1502275 -0.414068,-0.1796408 -0.121971,-0.022056 -0.257898,-0.0263 -0.40821,-0.013669 -0.450939,0.037895 -1.031853,0.2318519 -1.757838,0.5857852 -1.43973,0.7019125 -2.847575,1.7395404 -4.433658,3.2667289 -2.380015,2.2916235 -3.2311,3.6031285 -6.033291,9.3061735 -0.836952,1.699205 -1.863644,3.781404 -3.119187,5.586438 -0.364862,0.251195 -1.302753,0.255793 -1.302753,0.255793 0,0 -0.93789,-0.0046 -1.302753,-0.255793 C 21.441967,21.947136 20.415275,19.864937 19.578323,18.165732 16.776132,12.462687 15.925047,11.151181 13.545032,8.8595581 11.958949,7.3323696 10.551103,6.2947417 9.1113734,5.5928292 8.3853892,5.2388959 7.8044737,5.044939 7.3535353,5.007044 Z"/>
 <rect style="fill:#ffffff" width="2" height="4" x="24" y="38" rx=".5" ry=".5"/>
 <rect style="opacity:0.2" width="2" height="4" x="22" y="39" rx=".5" ry=".5"/>
 <rect style="fill:#ffffff" width="2" height="4" x="22" y="38" rx=".5" ry=".5"/>
 <path style="fill:#b08458" d="M 7.3535353,4.0070437 C 7.2032225,3.9944121 7.0672955,3.998652 6.9453263,4.0207121 6.7827006,4.0501253 6.6458869,4.1095135 6.5312577,4.2003529 5.5929541,4.9439269 5.8855439,7.8976013 7.5097876,14.041544 c 0.9107933,3.44521 1.6619128,5.279869 2.9551214,7.222732 0.849152,1.275699 1.259587,1.759641 2.662148,3.145667 1.256112,1.383793 2.840607,3.319611 2.873089,4.947932 -0.360699,3.214373 -2.857186,4.8966 -3.000044,7.632781 0,3.312847 1.686317,5.998441 5.000073,5.998441 2.078524,0.207989 4.139177,-2.624247 6.000087,-2.99922 2.247795,0.454298 4.06349,3.010232 6.000088,2.99922 3.313756,0 5.000073,-2.685594 5.000073,-5.998441 -0.142858,-2.736181 -2.639346,-4.418408 -3.000044,-7.632781 0.03248,-1.628321 1.616977,-3.564139 2.873089,-4.947932 1.40256,-1.386026 1.812995,-1.869968 2.662148,-3.145667 1.293208,-1.942863 2.044327,-3.777522 2.955121,-7.222732 1.624243,-6.1439427 1.916834,-9.0976171 0.97853,-9.8411911 -0.114629,-0.09084 -0.251443,-0.1502275 -0.414068,-0.1796408 -0.121971,-0.022056 -0.257898,-0.0263 -0.40821,-0.013669 -0.450939,0.037895 -1.031853,0.2318519 -1.757838,0.5857852 -1.43973,0.7019125 -2.847575,1.7395404 -4.433658,3.2667289 -2.380015,2.2916238 -3.2311,3.6031288 -6.033291,9.3061738 -0.836952,1.699205 -1.863644,3.781404 -3.119187,5.586438 -0.364862,0.251195 -1.302753,0.255793 -1.302753,0.255793 0,0 -0.93789,-0.0046 -1.302753,-0.255793 C 21.441967,20.947136 20.415275,18.864937 19.578323,17.165732 16.776132,11.462687 15.925047,10.151181 13.545032,7.8595578 11.958949,6.3323693 10.551103,5.2947414 9.1113734,4.5928289 8.3853892,4.2388956 7.8044737,4.0449387 7.3535353,4.0070437 Z"/>
 <path style="opacity:0.2" d="m 19.101957,35 c -1.267765,0 -3.098915,-1.027728 -3.098915,-2.295493 0,-1.267765 -0.120019,-2.295493 1.147746,-2.295493 C 20.409447,30.796751 20.594028,35 19.101957,35 Z"/>
 <path style="fill:#ffffff" d="m 19.101957,34 c -1.267765,0 -3.098915,-1.027728 -3.098915,-2.295493 0,-1.267765 -0.120019,-2.295493 1.147746,-2.295493 C 20.409447,29.796751 20.594028,34 19.101957,34 Z"/>
 <path style="opacity:0.2" d="m 28.898043,35 c 1.267765,0 3.098915,-1.027728 3.098915,-2.295493 0,-1.267765 0.120019,-2.295493 -1.147746,-2.295493 C 27.590553,30.796751 27.405972,35 28.898043,35 Z"/>
 <path style="fill:#ffffff" d="m 28.898043,34 c 1.267765,0 3.098915,-1.027728 3.098915,-2.295493 0,-1.267765 0.120019,-2.295493 -1.147746,-2.295493 C 27.590553,29.796751 27.405972,34 28.898043,34 Z"/>
 <path style="fill:#bf3667" d="M 24,40 C 22.068458,39.868287 20.409787,37.956157 21.202731,37.013826 22.048847,36.270735 23.1108,35.991285 24,36.000206 c 0.889202,-0.0089 1.951154,0.270529 2.797269,1.01362 C 27.590213,37.956157 25.931543,39.868287 24,40 Z"/>
 <path style="opacity:0.3" d="m 8.0429688,6.3085938 c 0.00306,0.2153513 -0.023677,0.2944028 0.00586,0.5917968 0.1382306,1.3917864 0.5950713,3.6079064 1.3945313,6.6328124 0.8861906,3.353066 1.5180956,4.871632 2.6874996,6.628906 h -0.002 c 0.813712,1.222792 1.028556,1.472135 2.404297,2.832032 l 0.03906,0.03711 0.03516,0.04102 c 0.588451,0.648444 1.310646,1.395597 1.941406,2.273437 1.02779,-1.152894 2.308662,-2.052045 3.742188,-2.626953 -1.009435,-1.630698 -1.834444,-3.298546 -2.507813,-4.666016 v -0.002 C 14.998211,12.381183 14.435159,11.495728 12.158203,9.3027344 10.672039,7.8713614 9.437807,6.977496 8.234375,6.390625 8.0683058,6.309644 8.1758111,6.3566788 8.0429688,6.3085938 Z m 31.9140622,0.00977 c -0.08929,0.038896 -0.0905,0.02306 -0.191406,0.072266 -1.203432,0.586871 -2.437664,1.4807364 -3.923828,2.9121094 -2.276956,2.1929936 -2.840008,3.0784486 -5.625,8.7480466 v 0.002 c -0.673684,1.368108 -1.499679,3.036548 -2.509766,4.667969 1.434229,0.574645 2.715794,1.473813 3.744141,2.626953 0.63097,-0.878405 1.352649,-1.626631 1.941406,-2.27539 l 0.03516,-0.04102 0.03906,-0.03711 c 1.375741,-1.359897 1.590585,-1.60924 2.404297,-2.832032 h -0.002 c 1.169357,-1.757277 1.801309,-3.27584 2.6875,-6.628906 0.79946,-3.024906 1.2563,-5.2410259 1.394531,-6.6328124 0.02909,-0.292487 0.0026,-0.368798 0.0059,-0.5820312 z"/>
 <circle style="fill:#323232" cx="19" cy="33" r="1"/>
 <circle style="fill:#323232" cx="29" cy="33" r="1"/>
 <path style="opacity:0.2;fill:#ffffff" d="M 7.3535156 4.0078125 C 7.2032028 3.9951809 7.0672817 3.9994243 6.9453125 4.0214844 C 6.7826868 4.0508976 6.6458792 4.1103325 6.53125 4.2011719 C 6.1171161 4.5293591 5.957158 5.318269 6.03125 6.5917969 C 6.0821756 5.9050584 6.2398161 5.4321234 6.53125 5.2011719 C 6.6458792 5.1103321 6.7826868 5.0508974 6.9453125 5.0214844 C 7.0672817 4.9994264 7.2032028 4.9951805 7.3535156 5.0078125 C 7.804454 5.0457075 8.3853439 5.2398167 9.1113281 5.59375 C 10.551058 6.2956625 11.958839 7.3321865 13.544922 8.859375 C 15.924937 11.150998 16.775934 12.462971 19.578125 18.166016 C 20.415077 19.865221 21.441724 21.946921 22.697266 23.751953 C 23.062129 24.003146 24 24.007812 24 24.007812 C 24 24.007813 24.937872 24.003148 25.302734 23.751953 C 26.558277 21.946919 27.584923 19.865221 28.421875 18.166016 C 31.224066 12.462971 32.075063 11.150999 34.455078 8.859375 C 36.041161 7.3321865 37.448942 6.2956625 38.888672 5.59375 C 39.614657 5.2398167 40.195545 5.0457075 40.646484 5.0078125 C 40.796796 4.9951815 40.932716 4.9994284 41.054688 5.0214844 C 41.217312 5.0508977 41.354121 5.1103319 41.46875 5.2011719 C 41.759081 5.4312492 41.917099 5.9016746 41.96875 6.5839844 C 42.041672 5.3151816 41.882034 4.5286851 41.46875 4.2011719 C 41.354121 4.1103319 41.217313 4.0508977 41.054688 4.0214844 C 40.932716 3.9994284 40.796796 3.9951815 40.646484 4.0078125 C 40.195545 4.0457075 39.614657 4.2398167 38.888672 4.59375 C 37.448942 5.2956625 36.041161 6.3321865 34.455078 7.859375 C 32.075063 10.150999 31.224066 11.462971 28.421875 17.166016 C 27.584923 18.865221 26.558277 20.946919 25.302734 22.751953 C 24.937872 23.003148 24 23.007813 24 23.007812 C 24 23.007812 23.062129 23.003146 22.697266 22.751953 C 21.441724 20.94692 20.415077 18.865221 19.578125 17.166016 C 16.775934 11.462971 15.924937 10.150998 13.544922 7.859375 C 11.958839 6.3321865 10.551058 5.2956625 9.1113281 4.59375 C 8.3853439 4.2398167 7.804454 4.0457075 7.3535156 4.0078125 z M 15.927734 29.814453 C 15.396648 32.735808 13.135892 34.387472 13 36.990234 C 13 37.202327 13.027208 37.402964 13.041016 37.609375 C 13.380854 35.093498 15.656477 33.418731 16 30.357422 C 15.996461 30.180009 15.965689 29.998055 15.927734 29.814453 z M 32.072266 29.814453 C 32.034311 29.998055 32.003539 30.180009 32 30.357422 C 32.343522 33.418731 34.619145 35.093498 34.958984 37.609375 C 34.972792 37.402964 35 37.202327 35 36.990234 C 34.864108 34.387472 32.603352 32.735808 32.072266 29.814453 z"/>
</svg>
